assets/chess-sprites/cburnett/wk.svg

<svg xmlns="http://www.w3.org/2000/svg" width="45" height="45"><g fill-rule="evenodd" stroke="#000" stroke-width="1.5"><path d="M22.5 11.625V6" fill="none" stroke-linecap="round"/><path d="M22.5 25s4.5-7.5 3-10.5c0 0-1-2.5-3-2.5s-3 2.5-3 2.5c-1.5 3 3 10.5 3 10.5" fill="#fff"/><path d="M11.5 37c5.5 3.5 15.5 3.5 21 0v-7s9-4.5 6-10.5c-4-6.5-13.5-3.5-16 4V27v-3.5c-3.5-7.5-13-10.5-16-4-3 6 5 10 5 10V37z" fill="#fff" stroke-linecap="round" stroke-linejoin="round"/><path d="M20 8h5M11.5 29.5C17 27 27 27 32.5 30" fill="none" stroke-linecap="round"/><path d="M11.5 37c5.5-2.5 15.5-2.5 21 0M11.5 33.5c5.5-2 15.5-2 21 0" fill="none" stroke-linecap="round" stroke-linejoin="round"/></g></svg>

<?xml version="1.0" encoding="UTF-8" standalone="no"?>
<!DOCTYPE svg PUBLIC "-//W3C//DTD SVG 1.1//EN" "http://www.w3.org/Graphics/SVG/1.1/DTD/svg11.dtd">
<svg
   xmlns:svg="http://www.w3.org/2000/svg"
   xmlns="http://www.w3.org/2000/svg"
   version="1.1"
   width="45"
   height="45">
  <defs />
  <g style="fill-rule:evenodd; fill-opacity:1; stroke:#000000; stroke-width:1.5; stroke-linejoin:miter; stroke-miterlimit:4;stroke-dasharray:none;  stroke-opacity:1;">
    <path d="M 22.5,11.625 L 22.5,6"
          style="fill:none;fill-opacity:0.75; stroke-linecap:round;" />
    <path d="M 22.5,25 C 22.5,25 27,17.5 25.5,14.5 C 25.5,14.5 24.5,12 22.5,12 C 20.5,12 19.5,14.5 19.5,14.5 C 18,17.5 22.5,25 22.5,25"
          style="fill:#ffffff; stroke-linecap:butt;" />
    <path d="M 11.5,37 C 17,40.5 27,40.5 32.5,37 L 32.5,30 C 32.5,30 41.5,25.5 38.5,19.5 C 34.5,13 25,16 22.5,23.5 L 22.5,27 L 22.5,23.5 C 19,16 9.5,13 6.5,19.5 C 3.5,25.5 11.5,29.5 11.5,29.5 L 11.5,37 z "
          style="fill:#ffffff; stroke-linecap:round; stroke-linejoin:round;" />
    <path d="M 20,8 L 25,8"
          style="fill:none; fill-opacity:0.75; stroke-linecap:round;" />
    <path d="M 11.5,29.5 C 17,27 27,27 32.5,30"
          style="fill:none; fill-opacity:0.75; stroke-linecap:round;" />
    <path d="M 11.5,37 C 17,34.5 27,34.5 32.5,37"
          style="fill:none; fill-opacity:0.75; stroke-linecap:round; stroke-linejoin:round;" />
    <path d="M 11.5,33.5 C 17,31.5 27,31.5 32.5,33.5"
          style="fill:none; fill-opacity:0.75; stroke-linecap:round; stroke-linejoin:round;" />
  </g>
</svg>
